assets/media/icons/brands/aselsan-logo.svg

<?xml version="1.0" encoding="UTF-8" standalone="no"?>
<svg
   version="1.1"
   width="79.999603pt"
   height="50.068001pt"
   viewBox="0 0 79.9996 50.068002"
   id="svg24"
   sodipodi:docname="aselsan-logo.svg"
   inkscape:version="1.2.1 (9c6d41e410, 2022-07-14)"
   xmlns:inkscape="http://www.inkscape.org/namespaces/inkscape"
   xmlns:sodipodi="http://sodipodi.sourceforge.net/DTD/sodipodi-0.dtd"
   xmlns="http://www.w3.org/2000/svg"
   xmlns:svg="http://www.w3.org/2000/svg">
  <defs
     id="defs28" />
  <sodipodi:namedview
     id="namedview26"
     pagecolor="#505050"
     bordercolor="#eeeeee"
     borderopacity="1"
     inkscape:showpageshadow="0"
     inkscape:pageopacity="0"
     inkscape:pagecheckerboard="0"
     inkscape:deskcolor="#505050"
     inkscape:document-units="pt"
     showgrid="false"
     inkscape:zoom="11.343806"
     inkscape:cx="43.503917"
     inkscape:cy="46.104456"
     inkscape:window-width="1920"
     inkscape:window-height="1017"
     inkscape:window-x="-8"
     inkscape:window-y="-8"
     inkscape:window-maximized="1"
     inkscape:current-layer="svg24" />
  <g
     enable-background="new"
     id="g22"
     transform="translate(0,33.652727)">
    <g
       id="Layer-1"
       data-name="Layer 1">
      <clipPath
         id="cp0">
        <path
           transform="matrix(1,0,0,-1,0,16.0682)"
           d="M 0,16.068 H 80 V 0 H 0 Z"
           id="path2" />
      </clipPath>
      <g
         clip-path="url(#cp0)"
         id="g19">
        <path
           transform="matrix(1,0,0,-1,6.0469,11.289099)"
           d="m 0,0 c -0.601,0 -1.037,-0.088 -1.306,-0.265 -0.239,-0.153 -0.359,-0.44 -0.359,-0.862 0,-0.529 0.15,-0.862 0.451,-1 0.27,-0.123 0.786,-0.185 1.549,-0.185 0.602,0 1.01,0.089 1.226,0.265 0.208,0.176 0.312,0.506 0.312,0.989 0,0.353 -0.073,0.591 -0.22,0.713 C 1.391,-0.115 0.84,0 0,0 M -1.202,3.184 H -4.83 c 0,0.67 0.046,1.175 0.139,1.514 0.092,0.339 0.261,0.643 0.507,0.912 0.437,0.462 1.136,0.755 2.096,0.878 0.453,0.062 1.191,0.093 2.213,0.093 1.781,0 3.029,-0.185 3.743,-0.555 C 4.729,5.572 5.224,4.833 5.354,3.81 5.424,3.263 5.458,2.855 5.458,2.585 V -4.552 H 1.873 L 2,-2.768 H 1.908 C 1.685,-3.398 1.374,-3.859 0.974,-4.151 0.659,-4.374 0.321,-4.516 -0.041,-4.578 -0.432,-4.639 -0.894,-4.67 -1.423,-4.67 c -0.777,0 -1.395,0.064 -1.856,0.191 -0.462,0.126 -0.853,0.339 -1.176,0.639 -0.546,0.523 -0.818,1.416 -0.818,2.677 0,1.138 0.261,1.945 0.783,2.422 0.661,0.607 1.71,0.911 3.147,0.911 1.114,0 1.902,-0.116 2.364,-0.348 C 1.335,1.66 1.6,1.315 1.815,0.79 h 0.058 v 2.164 c 0,0.478 -0.096,0.817 -0.288,1.017 -0.269,0.278 -0.737,0.416 -1.405,0.416 -0.645,0 -1.056,-0.15 -1.232,-0.451 -0.077,-0.139 -0.127,-0.39 -0.15,-0.752"
           fill="#0b2f87"
           fill-rule="evenodd"
           id="path5" />
        <path
           transform="matrix(1,0,0,-1,23.5737,7.963399)"
           d="m 0,0 h -3.409 l -0.035,0.161 c -0.077,0.322 -0.211,0.529 -0.403,0.622 -0.208,0.107 -0.631,0.16 -1.269,0.16 -0.677,0 -1.108,-0.053 -1.292,-0.161 -0.231,-0.131 -0.346,-0.385 -0.346,-0.761 0,-0.469 0.188,-0.75 0.565,-0.842 0.13,-0.031 0.86,-0.081 2.19,-0.15 1.184,-0.062 1.987,-0.146 2.41,-0.254 0.799,-0.208 1.357,-0.588 1.672,-1.142 0.269,-0.469 0.404,-1.084 0.404,-1.845 0,-1.269 -0.373,-2.207 -1.118,-2.815 -0.499,-0.4 -1.052,-0.654 -1.659,-0.762 -0.775,-0.138 -1.697,-0.207 -2.765,-0.207 -1.582,0 -2.711,0.127 -3.386,0.381 -0.953,0.353 -1.529,1.014 -1.728,1.982 -0.055,0.277 -0.085,0.676 -0.093,1.199 h 3.663 c 0.006,-0.1 0.01,-0.176 0.01,-0.23 0,-0.397 0.107,-0.656 0.321,-0.778 0.238,-0.13 0.713,-0.195 1.426,-0.195 0.812,0 1.344,0.088 1.597,0.265 0.176,0.13 0.265,0.353 0.265,0.668 0,0.361 -0.07,0.618 -0.208,0.772 -0.191,0.215 -0.645,0.326 -1.358,0.334 -1.865,0.023 -3.127,0.142 -3.787,0.357 -0.729,0.245 -1.236,0.653 -1.52,1.221 -0.23,0.453 -0.345,1.075 -0.345,1.866 0,1.382 0.391,2.307 1.174,2.776 0.384,0.23 0.89,0.393 1.519,0.489 0.63,0.096 1.504,0.144 2.625,0.144 1.465,0 2.505,-0.107 3.119,-0.322 0.89,-0.314 1.442,-0.897 1.657,-1.748 C -0.035,0.909 0,0.514 0,0"
           fill="#0b2f87"
           id="path7" />
        <path
           transform="matrix(1,0,0,-1,32.5825,8.9541)"
           d="M 0,0 C -0.008,0.176 -0.012,0.291 -0.012,0.344 -0.02,0.842 -0.115,1.182 -0.3,1.366 -0.476,1.526 -0.699,1.626 -0.967,1.664 -1.198,1.687 -1.505,1.698 -1.889,1.698 -2.388,1.698 -2.741,1.652 -2.948,1.561 -3.302,1.408 -3.501,1.098 -3.547,0.631 -3.555,0.555 -3.563,0.344 -3.57,0 Z m -0.058,-3.208 h 3.501 c 0.008,-0.1 0.013,-0.173 0.013,-0.219 0,-0.954 -0.212,-1.72 -0.635,-2.297 -0.383,-0.531 -0.964,-0.889 -1.739,-1.073 -0.569,-0.139 -1.456,-0.208 -2.663,-0.208 -1.613,0 -2.796,0.176 -3.549,0.53 -1.014,0.476 -1.628,1.33 -1.844,2.559 -0.107,0.6 -0.161,1.537 -0.161,2.813 0,1.552 0.146,2.655 0.438,3.309 0.422,0.937 1.239,1.544 2.451,1.821 0.606,0.146 1.435,0.219 2.487,0.219 1.427,0 2.494,-0.162 3.2,-0.484 0.99,-0.452 1.611,-1.323 1.865,-2.613 0.099,-0.483 0.15,-1.143 0.15,-1.979 0,-0.246 -0.005,-0.629 -0.013,-1.151 h -7.047 c -0.011,-0.193 -0.017,-0.335 -0.017,-0.428 0,-0.811 0.116,-1.355 0.347,-1.633 0.261,-0.309 0.772,-0.463 1.533,-0.463 0.769,0 1.257,0.139 1.465,0.417 0.138,0.186 0.211,0.479 0.218,0.88"
           fill="#0b2f87"
           fill-rule="evenodd"
           id="path9" />
        <path
           transform="matrix(1,0,0,-1,0,16.0682)"
           d="m 41.549,0.227 h -3.585 v 15.732001 h 3.585 z"
           fill="#0b2f87"
           id="path11" />
        <path
           transform="matrix(1,0,0,-1,53.7114,7.963399)"
           d="m 0,0 h -3.409 l -0.035,0.161 c -0.077,0.322 -0.211,0.529 -0.403,0.622 -0.208,0.107 -0.631,0.16 -1.269,0.16 -0.677,0 -1.108,-0.053 -1.292,-0.161 -0.231,-0.131 -0.346,-0.385 -0.346,-0.761 0,-0.469 0.188,-0.75 0.565,-0.842 0.13,-0.031 0.861,-0.081 2.191,-0.15 1.184,-0.062 1.987,-0.146 2.409,-0.254 0.799,-0.208 1.357,-0.588 1.672,-1.142 0.269,-0.469 0.404,-1.084 0.404,-1.845 0,-1.269 -0.373,-2.207 -1.118,-2.815 -0.499,-0.4 -1.052,-0.654 -1.659,-0.762 -0.775,-0.138 -1.697,-0.207 -2.765,-0.207 -1.582,0 -2.711,0.127 -3.386,0.381 -0.953,0.353 -1.529,1.014 -1.728,1.982 -0.054,0.277 -0.085,0.676 -0.093,1.199 h 3.663 c 0.007,-0.1 0.01,-0.176 0.01,-0.23 0,-0.397 0.107,-0.656 0.321,-0.778 0.238,-0.13 0.713,-0.195 1.426,-0.195 0.812,0 1.344,0.088 1.597,0.265 0.177,0.13 0.265,0.353 0.265,0.668 0,0.361 -0.069,0.618 -0.208,0.772 -0.191,0.215 -0.644,0.326 -1.358,0.334 -1.865,0.023 -3.127,0.142 -3.787,0.357 -0.729,0.245 -1.235,0.653 -1.52,1.221 -0.23,0.453 -0.345,1.075 -0.345,1.866 0,1.382 0.391,2.307 1.174,2.776 0.384,0.23 0.89,0.393 1.52,0.489 0.629,0.096 1.504,0.144 2.624,0.144 1.465,0 2.505,-0.107 3.119,-0.322 0.89,-0.314 1.442,-0.897 1.657,-1.748 C -0.035,0.909 0,0.514 0,0"
           fill="#0b2f87"
           id="path13" />
        <path
           transform="matrix(1,0,0,-1,60.9297,11.289099)"
           d="m 0,0 c -0.601,0 -1.037,-0.088 -1.306,-0.265 -0.239,-0.153 -0.359,-0.44 -0.359,-0.862 0,-0.529 0.15,-0.862 0.451,-1 0.27,-0.123 0.786,-0.185 1.549,-0.185 0.602,0 1.01,0.089 1.226,0.265 0.208,0.176 0.312,0.506 0.312,0.989 0,0.353 -0.073,0.591 -0.219,0.713 C 1.392,-0.115 0.84,0 0,0 M -1.202,3.184 H -4.83 c 0,0.67 0.047,1.175 0.139,1.514 0.092,0.339 0.261,0.643 0.507,0.912 0.437,0.462 1.136,0.755 2.097,0.878 0.453,0.062 1.19,0.093 2.212,0.093 1.781,0 3.029,-0.185 3.743,-0.555 C 4.729,5.572 5.224,4.833 5.354,3.81 5.424,3.263 5.458,2.855 5.458,2.585 V -4.552 H 1.873 L 2,-2.768 H 1.908 C 1.685,-3.398 1.374,-3.859 0.975,-4.151 0.659,-4.374 0.321,-4.516 -0.04,-4.578 -0.432,-4.639 -0.893,-4.67 -1.423,-4.67 c -0.777,0 -1.395,0.064 -1.856,0.191 -0.461,0.126 -0.853,0.339 -1.176,0.639 -0.545,0.523 -0.818,1.416 -0.818,2.677 0,1.138 0.261,1.945 0.783,2.422 0.661,0.607 1.71,0.911 3.147,0.911 1.114,0 1.902,-0.116 2.364,-0.348 C 1.335,1.66 1.601,1.315 1.815,0.79 h 0.058 v 2.164 c 0,0.478 -0.096,0.817 -0.288,1.017 -0.269,0.278 -0.737,0.416 -1.405,0.416 -0.645,0 -1.055,-0.15 -1.232,-0.451 -0.077,-0.139 -0.127,-0.39 -0.15,-0.752"
           fill="#0b2f87"
           fill-rule="evenodd"
           id="path15" />
        <path
           transform="matrix(1,0,0,-1,68.707,4.8261997)"
           d="M 0,0 H 3.585 L 3.447,-2.155 h 0.057 c 0.238,0.716 0.538,1.238 0.899,1.57 0.507,0.468 1.278,0.703 2.315,0.703 1.728,0 2.865,-0.489 3.409,-1.465 0.262,-0.461 0.393,-1.091 0.393,-1.891 v -7.777 H 6.934 v 6.303 c 0,0.712 -0.057,1.191 -0.172,1.437 -0.177,0.391 -0.58,0.586 -1.209,0.586 -1.312,0 -1.968,-0.621 -1.968,-1.862 v -6.464 H 0 Z"
           fill="#0b2f87"
           id="path17" />
      </g>
    </g>
  </g>
</svg>

<?xml version="1.0" encoding="UTF-8" standalone="no"?>
<!DOCTYPE svg PUBLIC "-//W3C//DTD SVG 1.1//EN" "http://www.w3.org/Graphics/SVG/1.1/DTD/svg11.dtd">
<svg xmlns="http://www.w3.org/2000/svg" xmlns:xlink="http://www.w3.org/1999/xlink" version="1.1" width="79.9996pt" height="16.0682pt" viewBox="0 0 79.9996 16.0682">
<g enable-background="new">
<g id="Layer-1" data-name="Layer 1">
<clipPath id="cp0">
<path transform="matrix(1,0,0,-1,0,16.0682)" d="M 0 16.068 L 80 16.068 L 80 0 L 0 0 Z "/>
</clipPath>
<g clip-path="url(#cp0)">
<path transform="matrix(1,0,0,-1,6.0469,11.289099)" d="M 0 0 C -.601 0 -1.037 -.088 -1.306 -.265 C -1.545 -.418 -1.665 -.705 -1.665 -1.127 C -1.665 -1.656 -1.515 -1.989 -1.214 -2.127 C -.944 -2.25 -.428 -2.312 .335 -2.312 C .937 -2.312 1.345 -2.223 1.561 -2.047 C 1.769 -1.871 1.873 -1.541 1.873 -1.058 C 1.873 -.705 1.8 -.467 1.653 -.345 C 1.391 -.115 .84 0 0 0 M -1.202 3.184 L -4.83 3.184 C -4.83 3.854 -4.784 4.359 -4.691 4.698 C -4.599 5.037 -4.43 5.341 -4.184 5.61 C -3.747 6.072 -3.048 6.365 -2.088 6.488 C -1.635 6.55 -.897 6.581 .125 6.581 C 1.906 6.581 3.154 6.396 3.868 6.026 C 4.729 5.572 5.224 4.833 5.354 3.81 C 5.424 3.263 5.458 2.855 5.458 2.585 L 5.458 -4.552 L 1.873 -4.552 L 2 -2.768 L 1.908 -2.768 C 1.685 -3.398 1.374 -3.859 .974 -4.151 C .659 -4.374 .321 -4.516 -.041 -4.578 C -.432 -4.639 -.894 -4.67 -1.423 -4.67 C -2.2 -4.67 -2.818 -4.606 -3.279 -4.479 C -3.741 -4.353 -4.132 -4.14 -4.455 -3.84 C -5.001 -3.317 -5.273 -2.424 -5.273 -1.163 C -5.273 -.025 -5.012 .782 -4.49 1.259 C -3.829 1.866 -2.78 2.17 -1.343 2.17 C -.229 2.17 .559 2.054 1.021 1.822 C 1.335 1.66 1.6 1.315 1.815 .79 L 1.873 .79 L 1.873 2.954 C 1.873 3.432 1.777 3.771 1.585 3.971 C 1.316 4.249 .848 4.387 .18 4.387 C -.465 4.387 -.876 4.237 -1.052 3.936 C -1.129 3.797 -1.179 3.546 -1.202 3.184 " fill="#0b2f87" fill-rule="evenodd"/>
<path transform="matrix(1,0,0,-1,23.5737,7.963399)" d="M 0 0 L -3.409 0 L -3.444 .161 C -3.521 .483 -3.655 .69 -3.847 .783 C -4.055 .89 -4.478 .943 -5.116 .943 C -5.793 .943 -6.224 .89 -6.408 .782 C -6.639 .651 -6.754 .397 -6.754 .021 C -6.754 -.448 -6.566 -.729 -6.189 -.821 C -6.059 -.852 -5.329 -.902 -3.999 -.971 C -2.815 -1.033 -2.012 -1.117 -1.589 -1.225 C -.79 -1.433 -.232 -1.813 .083 -2.367 C .352 -2.836 .487 -3.451 .487 -4.212 C .487 -5.481 .114 -6.419 -.631 -7.027 C -1.13 -7.427 -1.683 -7.681 -2.29 -7.789 C -3.065 -7.927 -3.987 -7.996 -5.055 -7.996 C -6.637 -7.996 -7.766 -7.869 -8.441 -7.615 C -9.394 -7.262 -9.97 -6.601 -10.169 -5.633 C -10.224 -5.356 -10.254 -4.957 -10.262 -4.434 L -6.599 -4.434 C -6.593 -4.534 -6.589 -4.61 -6.589 -4.664 C -6.589 -5.061 -6.482 -5.32 -6.268 -5.442 C -6.03 -5.572 -5.555 -5.637 -4.842 -5.637 C -4.03 -5.637 -3.498 -5.549 -3.245 -5.372 C -3.069 -5.242 -2.98 -5.019 -2.98 -4.704 C -2.98 -4.343 -3.05 -4.086 -3.188 -3.932 C -3.379 -3.717 -3.833 -3.606 -4.546 -3.598 C -6.411 -3.575 -7.673 -3.456 -8.333 -3.241 C -9.062 -2.996 -9.569 -2.588 -9.853 -2.02 C -10.083 -1.567 -10.198 -.945 -10.198 -.154 C -10.198 1.228 -9.807 2.153 -9.024 2.622 C -8.64 2.852 -8.134 3.015 -7.505 3.111 C -6.875 3.207 -6.001 3.255 -4.88 3.255 C -3.415 3.255 -2.375 3.148 -1.761 2.933 C -.871 2.619 -.319 2.036 -.104 1.185 C -.035 .909 0 .514 0 0 " fill="#0b2f87"/>
<path transform="matrix(1,0,0,-1,32.5825,8.9541)" d="M 0 0 C -.008 .176 -.012 .291 -.012 .344 C -.02 .842 -.115 1.182 -.3 1.366 C -.476 1.526 -.699 1.626 -.967 1.664 C -1.198 1.687 -1.505 1.698 -1.889 1.698 C -2.388 1.698 -2.741 1.652 -2.948 1.561 C -3.302 1.408 -3.501 1.098 -3.547 .631 C -3.555 .555 -3.563 .344 -3.57 0 Z M -.058 -3.208 L 3.443 -3.208 C 3.451 -3.308 3.456 -3.381 3.456 -3.427 C 3.456 -4.381 3.244 -5.147 2.821 -5.724 C 2.438 -6.255 1.857 -6.613 1.082 -6.797 C .513 -6.936 -.374 -7.005 -1.581 -7.005 C -3.194 -7.005 -4.377 -6.829 -5.13 -6.475 C -6.144 -5.999 -6.758 -5.145 -6.974 -3.916 C -7.081 -3.316 -7.135 -2.379 -7.135 -1.103 C -7.135 .449 -6.989 1.552 -6.697 2.206 C -6.275 3.143 -5.458 3.75 -4.246 4.027 C -3.64 4.173 -2.811 4.246 -1.759 4.246 C -.332 4.246 .735 4.084 1.441 3.762 C 2.431 3.31 3.052 2.439 3.306 1.149 C 3.405 .666 3.456 .006 3.456 -.83 C 3.456 -1.076 3.451 -1.459 3.443 -1.981 L -3.604 -1.981 C -3.615 -2.174 -3.621 -2.316 -3.621 -2.409 C -3.621 -3.22 -3.505 -3.764 -3.274 -4.042 C -3.013 -4.351 -2.502 -4.505 -1.741 -4.505 C -.972 -4.505 -.484 -4.366 -.276 -4.088 C -.138 -3.902 -.065 -3.609 -.058 -3.208 " fill="#0b2f87" fill-rule="evenodd"/>
<path transform="matrix(1,0,0,-1,0,16.0682)" d="M 41.549 .227 L 37.964 .227 L 37.964 15.959001 L 41.549 15.959001 Z " fill="#0b2f87"/>
<path transform="matrix(1,0,0,-1,53.7114,7.963399)" d="M 0 0 L -3.409 0 L -3.444 .161 C -3.521 .483 -3.655 .69 -3.847 .783 C -4.055 .89 -4.478 .943 -5.116 .943 C -5.793 .943 -6.224 .89 -6.408 .782 C -6.639 .651 -6.754 .397 -6.754 .021 C -6.754 -.448 -6.566 -.729 -6.189 -.821 C -6.059 -.852 -5.328 -.902 -3.998 -.971 C -2.814 -1.033 -2.011 -1.117 -1.589 -1.225 C -.79 -1.433 -.232 -1.813 .083 -2.367 C .352 -2.836 .487 -3.451 .487 -4.212 C .487 -5.481 .114 -6.419 -.631 -7.027 C -1.13 -7.427 -1.683 -7.681 -2.29 -7.789 C -3.065 -7.927 -3.987 -7.996 -5.055 -7.996 C -6.637 -7.996 -7.766 -7.869 -8.441 -7.615 C -9.394 -7.262 -9.97 -6.601 -10.169 -5.633 C -10.223 -5.356 -10.254 -4.957 -10.262 -4.434 L -6.599 -4.434 C -6.592 -4.534 -6.589 -4.61 -6.589 -4.664 C -6.589 -5.061 -6.482 -5.32 -6.268 -5.442 C -6.03 -5.572 -5.555 -5.637 -4.842 -5.637 C -4.03 -5.637 -3.498 -5.549 -3.245 -5.372 C -3.068 -5.242 -2.98 -5.019 -2.98 -4.704 C -2.98 -4.343 -3.049 -4.086 -3.188 -3.932 C -3.379 -3.717 -3.832 -3.606 -4.546 -3.598 C -6.411 -3.575 -7.673 -3.456 -8.333 -3.241 C -9.062 -2.996 -9.568 -2.588 -9.853 -2.02 C -10.083 -1.567 -10.198 -.945 -10.198 -.154 C -10.198 1.228 -9.807 2.153 -9.024 2.622 C -8.64 2.852 -8.134 3.015 -7.504 3.111 C -6.875 3.207 -6 3.255 -4.88 3.255 C -3.415 3.255 -2.375 3.148 -1.761 2.933 C -.871 2.619 -.319 2.036 -.104 1.185 C -.035 .909 0 .514 0 0 " fill="#0b2f87"/>
<path transform="matrix(1,0,0,-1,60.9297,11.289099)" d="M 0 0 C -.601 0 -1.037 -.088 -1.306 -.265 C -1.545 -.418 -1.665 -.705 -1.665 -1.127 C -1.665 -1.656 -1.515 -1.989 -1.214 -2.127 C -.944 -2.25 -.428 -2.312 .335 -2.312 C .937 -2.312 1.345 -2.223 1.561 -2.047 C 1.769 -1.871 1.873 -1.541 1.873 -1.058 C 1.873 -.705 1.8 -.467 1.654 -.345 C 1.392 -.115 .84 0 0 0 M -1.202 3.184 L -4.83 3.184 C -4.83 3.854 -4.783 4.359 -4.691 4.698 C -4.599 5.037 -4.43 5.341 -4.184 5.61 C -3.747 6.072 -3.048 6.365 -2.087 6.488 C -1.634 6.55 -.897 6.581 .125 6.581 C 1.906 6.581 3.154 6.396 3.868 6.026 C 4.729 5.572 5.224 4.833 5.354 3.81 C 5.424 3.263 5.458 2.855 5.458 2.585 L 5.458 -4.552 L 1.873 -4.552 L 2 -2.768 L 1.908 -2.768 C 1.685 -3.398 1.374 -3.859 .975 -4.151 C .659 -4.374 .321 -4.516 -.04 -4.578 C -.432 -4.639 -.893 -4.67 -1.423 -4.67 C -2.2 -4.67 -2.818 -4.606 -3.279 -4.479 C -3.74 -4.353 -4.132 -4.14 -4.455 -3.84 C -5 -3.317 -5.273 -2.424 -5.273 -1.163 C -5.273 -.025 -5.012 .782 -4.49 1.259 C -3.829 1.866 -2.78 2.17 -1.343 2.17 C -.229 2.17 .559 2.054 1.021 1.822 C 1.335 1.66 1.601 1.315 1.815 .79 L 1.873 .79 L 1.873 2.954 C 1.873 3.432 1.777 3.771 1.585 3.971 C 1.316 4.249 .848 4.387 .18 4.387 C -.465 4.387 -.875 4.237 -1.052 3.936 C -1.129 3.797 -1.179 3.546 -1.202 3.184 " fill="#0b2f87" fill-rule="evenodd"/>
<path transform="matrix(1,0,0,-1,68.707,4.8261997)" d="M 0 0 L 3.585 0 L 3.447 -2.155 L 3.504 -2.155 C 3.742 -1.439 4.042 -.917 4.403 -.585 C 4.91 -.117 5.681 .118 6.718 .118 C 8.446 .118 9.583 -.371 10.127 -1.347 C 10.389 -1.808 10.52 -2.438 10.52 -3.238 L 10.52 -11.015 L 6.934 -11.015 L 6.934 -4.712 C 6.934 -4 6.877 -3.521 6.762 -3.275 C 6.585 -2.884 6.182 -2.689 5.553 -2.689 C 4.241 -2.689 3.585 -3.31 3.585 -4.551 L 3.585 -11.015 L 0 -11.015 Z " fill="#0b2f87"/>
</g>
</g>
</g>
</svg>
